X: 18782
T: If We Hadn't Any Women In The World
R: barndance
M: 4/4
K: Gmajor
|:B>c|d>ed>B G>AB>G|E2 _E2 D2 G>A|B>d^c>d e>dB>G|A4- A2 B>c|
d>ed>B G>AB>G|E2 _E2 D2 G>A|B>dB>G A>^GA>B|1 G4- G2:|2 G4- G>G||
|:(3Bcd|e2- e>f g2- g>f|e2 d2 d2 G>A|B>d^c>d e>dB>G|A4- A2 B>c|
d>ed>B G>AB>G|E2 _E2 D2 G>A|B>dB>G A>^GA>B|1 G4- G>G:|2 G4- G2||

